images/seat2.svg

<svg width="96" height="35" viewBox="0 0 96 35" fill="none" xmlns="http://www.w3.org/2000/svg">
<path fill-rule="evenodd" clip-rule="evenodd" d="M15.8444 11.1016H27.3324C29.9409 11.1016 32.075 13.2356 32.075 15.8442V27.3321C32.075 29.9407 29.9409 32.0747 27.3324 32.0747H15.8444C13.2359 32.0747 11.1018 29.9407 11.1018 27.3321V15.8442C11.1018 13.2356 13.2359 11.1016 15.8444 11.1016ZM95.6091 11.8166V31.3501C95.6091 33.1377 94.1598 34.587 92.3722 34.587C90.5846 34.587 89.1353 33.1377 89.1353 31.3501V11.8166C89.1353 10.3258 88.5484 8.97768 87.6036 8.00775C86.682 7.06146 85.4114 6.47356 84.0157 6.47356H11.5934C10.1977 6.47356 8.9271 7.06121 8.00547 8.00775C7.06096 8.97743 6.47381 10.3258 6.47381 11.8166V31.3501C6.47381 33.1377 5.02451 34.587 3.23691 34.587C1.4493 34.587 0 33.1377 0 31.3501V11.8166C0 8.58854 1.29375 5.64597 3.37772 3.50659C5.48508 1.34306 8.39308 0 11.5934 0H84.0157C87.216 0 90.124 1.34306 92.2314 3.50659C94.3154 5.64597 95.6091 8.58854 95.6091 11.8166ZM68.277 11.1016H79.7649C82.3735 11.1016 84.5075 13.2356 84.5075 15.8442V27.3321C84.5075 29.9407 82.3735 32.0747 79.7649 32.0747H68.277C65.6684 32.0747 63.5344 29.9407 63.5344 27.3321V15.8442C63.5344 13.2356 65.6684 11.1016 68.277 11.1016ZM42.0607 11.1016H53.5486C56.1572 11.1016 58.2913 13.2356 58.2913 15.8442V27.3321C58.2913 29.9407 56.1572 32.0747 53.5486 32.0747H42.0607C39.4521 32.0747 37.3181 29.9407 37.3181 27.3321V15.8442C37.3181 13.2356 39.4521 11.1016 42.0607 11.1016Z" fill="white"/>
</svg>

<svg width="96" height="35" fill="none" xmlns="http://www.w3.org/2000/svg"><path fill-rule="evenodd" clip-rule="evenodd" d="M15.844 11.102h11.488a4.756 4.756 0 014.743 4.742v11.488a4.756 4.756 0 01-4.743 4.743H15.844a4.756 4.756 0 01-4.742-4.743V15.844a4.756 4.756 0 014.742-4.742zm79.765.715V31.35a3.237 3.237 0 01-6.474 0V11.817a5.45 5.45 0 00-1.531-3.81 5.002 5.002 0 00-3.588-1.533H11.593a5 5 0 00-3.588 1.534 5.445 5.445 0 00-1.531 3.809V31.35a3.237 3.237 0 01-6.474 0V11.817c0-3.228 1.294-6.171 3.378-8.31C5.485 1.343 8.393 0 11.593 0h72.423c3.2 0 6.108 1.343 8.215 3.507a11.895 11.895 0 013.378 8.31zm-27.332-.715h11.488a4.756 4.756 0 014.742 4.742v11.488a4.756 4.756 0 01-4.742 4.743H68.277a4.756 4.756 0 01-4.743-4.743V15.844a4.756 4.756 0 014.743-4.742zm-26.216 0h11.488a4.756 4.756 0 014.742 4.742v11.488a4.756 4.756 0 01-4.742 4.743H42.06a4.756 4.756 0 01-4.743-4.743V15.844a4.756 4.756 0 014.743-4.742z" fill="#fff"/></svg>
